public/img_performanceicon_1.svg

<svg width="74" height="75" viewBox="0 0 74 75" fill="none" xmlns="http://www.w3.org/2000/svg">
<g clip-path="url(#clip0_9_47746)">
<mask id="mask0_9_47746" style="mask-type:luminance" maskUnits="userSpaceOnUse" x="0" y="0" width="74" height="75">
<path d="M74 0H0V75H74V0Z" fill="white"/>
</mask>
<g mask="url(#mask0_9_47746)">
<path fill-rule="evenodd" clip-rule="evenodd" d="M33.2436 5.01318C40.2608 1.08716 48.778 -1.45911 56.2827 2.75958L63.8839 7.1288C50.5513 -0.183887 34.3024 12.351 26.012 21.9967C15.7215 33.9587 7.02353 52.6439 8.34713 68.5738C8.52361 70.6977 9.18331 72.5918 11.0574 73.7876C9.60351 72.9555 3.48971 69.619 2.60311 68.7786C0.0483446 66.3494 0.535767 60.3998 0.792084 57.2598C2.46865 37.4541 15.9905 15.1606 33.2436 5.01318Z" fill="#035BE8"/>
<path fill-rule="evenodd" clip-rule="evenodd" d="M33.5297 5.50677C16.5917 15.4786 3.05308 37.262 1.37652 57.3018C1.1328 60.1575 0.632779 66.0988 2.98585 68.3649C3.51949 68.8625 6.34318 70.4889 8.51978 71.7098C8.11639 70.8443 7.87268 69.8241 7.77604 68.6158C6.40621 52.0462 15.7345 33.0809 25.5754 21.629C33.9036 11.9373 46.7783 2.68873 58.3966 4.62875L55.9889 3.24899C49.8919 -0.179483 42.3242 0.581471 33.5297 5.50677ZM11.0536 74.3564C10.9569 74.3564 10.8603 74.3313 10.7637 74.2853C10.4779 74.1181 10.0031 73.8505 9.42739 73.5244C6.1541 71.6931 2.91022 69.8576 2.20009 69.1886C-0.560566 66.542 -0.0437302 60.4711 0.229395 57.2057C1.95638 36.8188 15.7009 14.6633 32.9498 4.52422V4.51586C42.1268 -0.618495 50.0852 -1.37945 56.552 2.26226L64.17 6.63566C64.4473 6.79036 64.544 7.1332 64.3801 7.40916C64.2373 7.68092 63.8843 7.77291 63.607 7.62657C51.3248 0.89087 35.9163 11.3603 26.4494 22.369C16.7514 33.637 7.57435 52.2762 8.92316 68.5238C9.11645 70.8778 9.86019 72.3537 11.3603 73.307C11.6166 73.4784 11.7007 73.8212 11.541 74.0846C11.4234 74.2603 11.2511 74.3564 11.0536 74.3564Z" fill="#035BE8"/>
<path fill-rule="evenodd" clip-rule="evenodd" d="M40.8383 9.38272C49.843 4.2191 57.9947 3.7341 63.8816 7.12913C69.7853 10.52 73.4325 17.7909 73.4325 28.1348C73.4325 29.1466 73.3821 30.2337 73.3149 31.279C73.1048 34.2224 71.9787 37.3624 70.2811 40.1261C68.6087 42.8898 66.3481 45.2646 63.8942 46.6737L53.6793 52.5355C52.3095 55.2825 50.5951 57.9082 48.658 60.2245C46.3176 63.0425 43.6367 65.409 40.8172 67.0271C37.9935 68.6494 35.3127 69.3518 32.9765 69.2305C31.0352 69.1344 29.3292 68.4654 27.972 67.2905L17.7571 73.1524C15.2906 74.5614 13.0426 74.7746 11.3534 73.9551C9.66001 73.1315 8.5465 71.2792 8.3364 68.5741C8.27338 67.6083 8.21875 66.5672 8.21875 65.5554C8.23976 55.2114 11.887 43.7553 17.7907 33.5911C23.6818 23.4228 31.8419 14.5505 40.8298 9.38691L40.8383 9.38272Z" fill="#EFF3FA"/>
<path fill-rule="evenodd" clip-rule="evenodd" d="M55.381 5.51457C51.0279 5.51457 46.1831 6.98213 41.1365 9.87543C32.5184 14.8216 24.4045 23.3426 18.2865 33.8706C12.1853 44.3901 8.81538 55.6456 8.81538 65.5505C8.81538 66.4954 8.849 67.5198 8.92883 68.5274C9.10952 70.9357 10.0592 72.6834 11.6097 73.4402C13.1896 74.2012 15.2737 73.9252 17.4797 72.6542L27.6946 66.7923C27.9089 66.6711 28.182 66.6961 28.3627 66.855C29.6359 67.9588 31.2158 68.5693 33.0226 68.6612C35.3127 68.7741 37.9095 68.0424 40.5441 66.5331C43.2249 64.9986 45.8847 62.6949 48.242 59.8601C50.1455 57.573 51.8052 55.0226 53.1792 52.2798C53.2297 52.1795 53.3053 52.0958 53.4019 52.0373L63.6168 46.1755C65.9069 44.8542 68.1213 42.6048 69.8146 39.8244C71.5248 37.0398 72.5711 33.9918 72.7518 31.2407C72.8358 30.1745 72.8652 29.1 72.8652 28.13C72.8652 18.3379 69.5919 11.0545 63.621 7.61347C61.1839 6.21699 58.4106 5.51457 55.3937 5.51457H55.381ZM13.5425 74.9997C12.6727 74.9997 11.845 74.8241 11.1054 74.4646C9.16834 73.5238 7.99181 71.4458 7.77751 68.6152C7.69767 67.5783 7.66406 66.5247 7.66406 65.5589C7.66406 55.4574 11.0886 44.0055 17.2991 33.3061C23.5095 22.611 31.7747 13.9436 40.5651 8.89706C49.4395 3.79615 57.8308 2.99339 64.1673 6.64346C70.508 10.2894 73.9956 17.9282 73.9956 28.1425C73.9956 29.146 73.9619 30.2414 73.8779 31.3285C73.6678 34.2678 72.5753 37.4997 70.7853 40.4307C68.9743 43.37 66.638 45.7657 64.1673 47.1789L54.1205 52.953C52.7296 55.7167 51.0363 58.288 49.0992 60.6043C46.6621 63.5353 43.8846 65.9394 41.1071 67.5365C38.2876 69.1546 35.4471 69.9323 32.947 69.8152C31.0603 69.719 29.3123 69.0877 27.9131 67.9923L18.0386 73.6618C16.4713 74.5607 14.9418 75.0165 13.5341 75.0165L13.5425 74.9997Z" fill="#035BE8"/>
<path fill-rule="evenodd" clip-rule="evenodd" d="M59.8171 14.1446C54.9597 11.3517 48.245 11.7489 40.837 16.0052C33.4291 20.2657 26.7186 27.5617 21.8654 35.928C17.008 44.2943 14.0078 53.7268 14.0078 62.2436C14.0078 63.1258 14.0204 63.9119 14.0918 64.7564C14.1717 65.8101 14.6087 66.5334 15.2473 66.8512C15.9155 67.1647 16.7979 67.0853 17.7685 66.5209L29.4372 59.8228V59.8353C30.3701 59.3001 31.2903 59.3001 31.8407 59.9524C32.824 61.1189 34.1644 61.7753 35.7317 61.8548C37.2276 61.9342 38.9714 61.4659 40.8286 60.3998C42.7027 59.3294 44.4213 57.7991 45.9256 56.0055C47.4425 54.1909 48.7324 52.0962 49.7031 49.9053C50.1863 48.605 51.1359 47.3632 52.2158 46.7444L63.8972 40.0463C64.8636 39.4861 65.7502 38.5621 66.3973 37.4917C67.057 36.4172 67.4982 35.1963 67.5738 34.0507C67.6411 33.135 67.6579 32.3197 67.6579 31.4375C67.6705 22.9207 64.6703 16.9334 59.8171 14.1404V14.1446Z" fill="white"/>
<path fill-rule="evenodd" clip-rule="evenodd" d="M52.8146 12.9278C49.2514 12.9278 45.2595 14.1278 41.1333 16.4985C34.053 20.5625 27.3846 27.5657 22.3675 36.2164C17.3462 44.8628 14.5729 54.1072 14.5729 62.2477C14.5729 63.1132 14.6065 63.8867 14.657 64.7145C14.72 65.5298 15.0267 66.1068 15.5142 66.341C16.0142 66.5835 16.7075 66.4748 17.4807 66.0316L29.1494 59.3335C29.1998 59.3126 29.2292 59.3 29.2628 59.2917C30.4394 58.6562 31.5865 58.769 32.2966 59.5969C33.1538 60.638 34.364 61.2233 35.7632 61.2944C37.2171 61.3655 38.8474 60.8888 40.5408 59.9105C42.2804 58.9154 43.9948 57.4436 45.4991 55.6458C46.9697 53.8856 48.2429 51.8243 49.1925 49.6836C49.7262 48.2453 50.7935 46.9199 51.9532 46.2551L63.6177 39.557C64.4749 39.0637 65.2943 38.2275 65.9288 37.1989C66.5549 36.162 66.9457 35.0373 67.0087 34.0129C67.0717 33.114 67.1053 32.3029 67.1053 31.4374C67.1053 23.4098 64.4245 17.4476 59.5377 14.6337C57.5544 13.4881 55.2769 12.9195 52.8272 12.9195L52.8146 12.9278ZM16.0856 67.6036C15.6948 67.6036 15.3419 67.5242 15.0057 67.3653C14.1359 66.943 13.6023 66.0316 13.5224 64.8023C13.4552 63.9452 13.4258 63.1424 13.4258 62.2477C13.4258 53.9106 16.2453 44.4614 21.3632 35.6436C26.4938 26.8257 33.3051 19.6719 40.566 15.5117C47.9068 11.2972 54.8441 10.6324 60.1049 13.6595C65.3531 16.6782 68.2356 22.9958 68.2356 31.4458C68.2356 32.3405 68.2062 33.1726 68.139 34.0966C68.0634 35.2965 67.6096 36.6094 66.8994 37.7926C66.1557 38.9801 65.2061 39.9542 64.1892 40.5396L52.5079 47.2418C51.5708 47.777 50.6968 48.8766 50.2304 50.1059C49.2304 52.3762 47.9068 54.5294 46.3605 56.3691C44.7805 58.2673 42.9695 59.831 41.1123 60.893C39.2298 61.9759 37.3725 62.5027 35.696 62.4275C33.969 62.3355 32.4857 61.608 31.4058 60.3202C30.9184 59.7349 30.0654 60.1321 29.7293 60.3286C29.6956 60.3411 29.662 60.362 29.6326 60.3704L18.0605 67.0099C17.3798 67.403 16.7033 67.5953 16.0898 67.5953L16.0856 67.6036Z" fill="#035BE8"/>
<path fill-rule="evenodd" clip-rule="evenodd" d="M40.4187 53.2378C42.3684 52.7193 44.3517 50.2441 44.8895 47.7062C45.3559 45.415 44.0659 43.5879 42.3053 44.0561C40.3682 44.5704 38.3723 47.0456 37.8345 49.5793C37.3176 52.1131 38.469 53.752 40.4187 53.2378Z" fill="#035BE8"/>
<path fill-rule="evenodd" clip-rule="evenodd" d="M42.8581 44.553C42.7279 44.553 42.6018 44.574 42.4548 44.6074C40.7446 45.0673 38.8705 47.4004 38.4041 49.6999C38.1478 50.9166 38.3243 51.941 38.8579 52.4385C39.2949 52.8441 39.8748 52.7981 40.2782 52.6894C42.0051 52.2295 43.8582 49.8965 44.3288 47.5969C44.5515 46.4931 44.3288 45.4687 43.7447 44.9126C43.4884 44.6743 43.1817 44.553 42.8581 44.553ZM39.7235 53.9061C39.0974 53.9061 38.5134 53.6887 38.0595 53.2664C37.236 52.4804 36.9502 51.0964 37.2864 49.47C37.8495 46.7021 39.9966 44.0848 42.1606 43.5078C43.0514 43.2736 43.8708 43.4827 44.5137 44.0848C45.4045 44.9084 45.7449 46.3384 45.4507 47.8268C44.8667 50.5947 42.7237 53.212 40.5639 53.789C40.274 53.8685 39.9966 53.9061 39.7235 53.9061Z" fill="#035BE8"/>
<path fill-rule="evenodd" clip-rule="evenodd" d="M61.6833 35.5853C61.4732 35.5853 61.3009 35.4849 61.1875 35.301C61.0278 35.025 61.1202 34.6822 61.3976 34.5233L64.5112 32.738C64.7843 32.5791 65.1373 32.6752 65.2844 32.947C65.4482 33.2188 65.3516 33.5658 65.0743 33.7205L61.9606 35.51C61.8766 35.5602 61.78 35.5894 61.6833 35.5894V35.5853Z" fill="#035BE8"/>
<path fill-rule="evenodd" clip-rule="evenodd" d="M55.5849 22.1474C55.4925 22.1474 55.3749 22.1224 55.2992 22.068C55.0219 21.9133 54.9252 21.5663 55.0849 21.2945L57.2993 17.4939C57.4464 17.218 57.7994 17.1302 58.0725 17.2849C58.3498 17.4396 58.4465 17.7866 58.2826 18.0625L56.0724 21.8548C55.9757 22.0387 55.7824 22.1391 55.5849 22.1391V22.1474Z" fill="#035BE8"/>
<path fill-rule="evenodd" clip-rule="evenodd" d="M40.8403 23.5896C40.521 23.5896 40.2773 23.3387 40.2773 23.0251V19.4419C40.2773 19.1284 40.5336 18.8691 40.8403 18.8691C41.1681 18.8691 41.4244 19.1242 41.4244 19.4419V23.0251C41.4244 23.3387 41.1681 23.5896 40.8403 23.5896Z" fill="#035BE8"/>
<path fill-rule="evenodd" clip-rule="evenodd" d="M26.091 39.0677C25.9943 39.0677 25.8977 39.0385 25.801 38.9883L23.6076 37.7214C23.3345 37.5667 23.2379 37.2197 23.3975 36.9479C23.5572 36.672 23.8976 36.58 24.1707 36.7389L26.3767 38.0057C26.654 38.1604 26.7507 38.5075 26.591 38.7792C26.4733 38.9632 26.2843 39.0635 26.091 39.0635V39.0677Z" fill="#035BE8"/>
<path fill-rule="evenodd" clip-rule="evenodd" d="M16.8612 61.303C16.6721 61.303 16.4788 61.2068 16.378 61.0229C16.2183 60.7511 16.3149 60.4041 16.5881 60.2452L19.7017 58.4557C19.958 58.301 20.3152 58.393 20.4748 58.6689C20.6387 58.9407 20.5421 59.2835 20.2647 59.4424L17.1511 61.2319C17.0545 61.2821 16.9578 61.303 16.8612 61.303Z" fill="#035BE8"/>
<path fill-rule="evenodd" clip-rule="evenodd" d="M44.4037 45.3769C44.2777 45.3769 44.1474 45.335 44.0508 45.2514C43.7945 45.0549 43.765 44.6953 43.9541 44.4487L60.6694 23.8611C60.8627 23.6144 61.2198 23.5809 61.4761 23.7733C61.7198 23.9698 61.7535 24.3294 61.5602 24.576L44.8449 45.1636C44.7315 45.3058 44.5718 45.3769 44.4079 45.3769H44.4037Z" fill="#035BE8"/>
</g>
</g>
<defs>
<clipPath id="clip0_9_47746">
<rect width="74" height="75" fill="white"/>
</clipPath>
</defs>
</svg>

<svg xmlns="http://www.w3.org/2000/svg" width="74" height="75" fill="none" viewBox="0 0 74 75"><g clip-path="url(#a)"><mask id="b" width="74" height="75" x="0" y="0" maskUnits="userSpaceOnUse" style="mask-type:luminance"><path fill="#fff" d="M74 0H0v75h74z"/></mask><g fill-rule="evenodd" clip-rule="evenodd" mask="url(#b)"><path fill="#035be8" d="M33.244 5.013C40.26 1.087 48.778-1.459 56.283 2.76l7.6 4.369C50.552-.184 34.304 12.35 26.013 21.997 15.722 33.959 7.024 52.644 8.347 68.574c.177 2.124.836 4.018 2.71 5.214-1.453-.832-7.567-4.169-8.454-5.01C.048 66.35.536 60.4.793 57.26c1.676-19.806 15.198-42.1 32.45-52.247"/><path fill="#035be8" d="M33.53 5.507C16.592 15.479 3.053 37.262 1.377 57.302c-.244 2.855-.744 8.797 1.609 11.063.533.498 3.357 2.124 5.534 3.345-.404-.866-.647-1.886-.744-3.094-1.37-16.57 7.959-35.535 17.8-46.987 8.328-9.692 21.202-18.94 32.82-17l-2.407-1.38C49.892-.179 42.324.581 33.529 5.507m-22.476 68.85a.7.7 0 0 1-.29-.072c-.286-.167-.76-.434-1.337-.76-3.273-1.832-6.517-3.667-7.227-4.336C-.56 66.542-.044 60.47.23 57.206 1.955 36.819 15.7 14.663 32.95 4.524v-.008C42.127-.618 50.085-1.38 56.552 2.262l7.618 4.374a.554.554 0 0 1 .21.773c-.143.272-.496.364-.773.218C51.325.89 35.917 11.36 26.449 22.369 16.751 33.637 7.574 52.276 8.923 68.524c.193 2.354.937 3.83 2.437 4.783.257.171.34.514.181.778a.58.58 0 0 1-.487.271"/><path fill="#eff3fa" d="M40.838 9.383c9.005-5.164 17.157-5.649 23.044-2.254 5.903 3.391 9.55 10.662 9.55 21.006 0 1.012-.05 2.099-.117 3.144-.21 2.943-1.336 6.083-3.034 8.847-1.672 2.764-3.933 5.139-6.387 6.548L53.68 52.535a39.7 39.7 0 0 1-5.021 7.69c-2.34 2.817-5.021 5.184-7.84 6.802-2.825 1.622-5.505 2.325-7.841 2.204-1.942-.097-3.648-.766-5.005-1.94l-10.215 5.861c-2.466 1.41-4.714 1.623-6.404.803-1.693-.823-2.806-2.676-3.017-5.38a47 47 0 0 1-.117-3.02c.02-10.344 3.668-21.8 9.572-31.964 5.89-10.168 14.05-19.04 23.039-24.204z"/><path fill="#035be8" d="M55.381 5.515c-4.353 0-9.198 1.467-14.245 4.36-8.618 4.947-16.732 13.468-22.85 23.996-6.1 10.52-9.47 21.775-9.47 31.68 0 .944.033 1.969.113 2.976.18 2.409 1.13 4.156 2.68 4.913 1.58.761 3.665.485 5.87-.786l10.216-5.862a.585.585 0 0 1 .668.063c1.273 1.104 2.853 1.714 4.66 1.806 2.29.113 4.886-.619 7.521-2.128 2.68-1.534 5.34-3.838 7.698-6.673a39.5 39.5 0 0 0 4.937-7.58c.05-.1.126-.184.223-.243l10.215-5.861c2.29-1.322 4.504-3.571 6.198-6.352 1.71-2.784 2.756-5.832 2.937-8.583.084-1.067.113-2.141.113-3.111 0-9.792-3.273-17.075-9.244-20.517-2.437-1.396-5.21-2.098-8.227-2.098zM13.543 75c-.87 0-1.698-.176-2.438-.535-1.937-.941-3.113-3.02-3.327-5.85a40 40 0 0 1-.114-3.056c0-10.102 3.425-21.553 9.635-32.253 6.21-10.695 14.476-19.362 23.266-24.409 8.875-5.1 17.266-5.904 23.602-2.254 6.341 3.646 9.829 11.285 9.829 21.5 0 1.003-.034 2.098-.118 3.185-.21 2.94-1.303 6.172-3.093 9.103-1.81 2.939-4.147 5.335-6.618 6.748L54.12 52.953a40 40 0 0 1-5.02 7.651c-2.438 2.931-5.215 5.335-7.993 6.933-2.82 1.618-5.66 2.395-8.16 2.278-1.887-.096-3.635-.727-5.034-1.823l-9.874 5.67c-1.568.899-3.097 1.354-4.505 1.354z"/><path fill="#fff" d="M59.817 14.145c-4.857-2.793-11.572-2.396-18.98 1.86-7.408 4.26-14.118 11.557-18.972 19.923-4.857 8.366-7.857 17.799-7.857 26.316 0 .882.012 1.668.084 2.512.08 1.054.517 1.777 1.155 2.095.668.314 1.55.234 2.521-.33l11.67-6.698v.012c.932-.535 1.852-.535 2.403.117.983 1.167 2.323 1.823 3.89 1.903 1.497.08 3.24-.39 5.098-1.455 1.874-1.07 3.592-2.6 5.097-4.395a26 26 0 0 0 3.777-6.1c.483-1.3 1.433-2.542 2.513-3.16l11.681-6.699c.967-.56 1.853-1.484 2.5-2.554.66-1.075 1.101-2.296 1.177-3.441.067-.916.084-1.731.084-2.614.013-8.516-2.988-14.504-7.84-17.297z"/><path fill="#035be8" d="M52.815 12.928c-3.564 0-7.555 1.2-11.682 3.57-7.08 4.064-13.748 11.068-18.766 19.718-5.02 8.647-7.794 17.891-7.794 26.032 0 .865.034 1.639.084 2.467.063.815.37 1.392.857 1.626.5.243 1.194.134 1.967-.31l11.668-6.698c.05-.02.08-.033.114-.041 1.176-.636 2.323-.523 3.034.305.857 1.041 2.067 1.626 3.466 1.697 1.454.072 3.084-.405 4.778-1.383 1.74-.996 3.454-2.467 4.958-4.265a25.6 25.6 0 0 0 3.694-5.962c.533-1.439 1.6-2.764 2.76-3.429l11.665-6.698c.857-.493 1.676-1.33 2.31-2.358.627-1.037 1.018-2.162 1.08-3.186.064-.899.097-1.71.097-2.576 0-8.027-2.68-13.99-7.567-16.803-1.984-1.146-4.261-1.715-6.71-1.715zm-36.73 54.676c-.39 0-.743-.08-1.08-.239-.87-.422-1.403-1.333-1.483-2.563a32 32 0 0 1-.096-2.554c0-8.337 2.82-17.787 7.937-26.604 5.13-8.818 11.942-15.972 19.203-20.132 7.34-4.215 14.278-4.88 19.539-1.853 5.248 3.02 8.13 9.337 8.13 17.787 0 .894-.029 1.727-.096 2.65-.076 1.2-.53 2.513-1.24 3.697-.743 1.187-1.693 2.161-2.71 2.747l-11.681 6.702c-.937.535-1.811 1.635-2.278 2.864-1 2.27-2.323 4.423-3.87 6.263-1.58 1.898-3.39 3.462-5.248 4.524-1.882 1.083-3.74 1.61-5.416 1.535-1.727-.092-3.21-.82-4.29-2.108-.488-.585-1.34-.188-1.677.009-.033.012-.067.033-.096.041L18.06 67.01c-.681.393-1.358.585-1.971.585z"/><path fill="#035be8" d="M40.419 53.238c1.95-.519 3.933-2.994 4.47-5.532.467-2.291-.823-4.118-2.584-3.65-1.937.514-3.933 2.99-4.47 5.523-.517 2.534.634 4.173 2.584 3.659"/><path fill="#035be8" d="M42.858 44.553c-.13 0-.256.021-.403.054-1.71.46-3.584 2.793-4.05 5.093-.257 1.217-.08 2.241.453 2.738.437.406 1.017.36 1.42.251 1.727-.46 3.58-2.792 4.05-5.092.223-1.104 0-2.128-.583-2.684a1.29 1.29 0 0 0-.887-.36m-3.134 9.353c-.627 0-1.21-.217-1.664-.64-.824-.786-1.11-2.17-.774-3.796.563-2.768 2.71-5.385 4.875-5.962.89-.234 1.71-.025 2.353.577.89.823 1.23 2.253.937 3.742-.584 2.768-2.727 5.385-4.887 5.962-.29.08-.567.117-.84.117M61.683 35.585c-.21 0-.382-.1-.495-.284a.563.563 0 0 1 .21-.778l3.113-1.785a.56.56 0 0 1 .773.209.555.555 0 0 1-.21.773l-3.113 1.79a.55.55 0 0 1-.278.08zM55.585 22.147a.53.53 0 0 1-.286-.079.56.56 0 0 1-.214-.774l2.214-3.8a.56.56 0 0 1 .773-.21.56.56 0 0 1 .21.779l-2.21 3.792a.55.55 0 0 1-.487.284zM40.84 23.59a.557.557 0 0 1-.563-.565v-3.583a.573.573 0 1 1 1.147 0v3.583a.57.57 0 0 1-.584.565M26.091 39.068a.6.6 0 0 1-.29-.08l-2.193-1.267a.56.56 0 0 1-.21-.773.56.56 0 0 1 .773-.21l2.206 1.268a.56.56 0 0 1 .214.773.6.6 0 0 1-.5.284zM16.861 61.303a.55.55 0 0 1-.483-.28.567.567 0 0 1 .21-.778l3.114-1.79a.57.57 0 0 1 .773.214.556.556 0 0 1-.21.773l-3.114 1.79a.6.6 0 0 1-.29.071"/><path fill="#035be8" d="M44.404 45.377a.54.54 0 0 1-.353-.126.57.57 0 0 1-.097-.802L60.67 23.86a.58.58 0 0 1 .807-.088.576.576 0 0 1 .084.803L44.845 45.164a.55.55 0 0 1-.437.213z"/></g></g><defs><clipPath id="a"><path fill="#fff" d="M0 0h74v75H0z"/></clipPath></defs></svg>
